format-rotate-90.svg

<svg fill="currentColor" viewBox="0 0 24 24"><path d="M7.34 6.41.86 12.9l6.49 6.48 6.49-6.48zM3.69 12.9l3.66-3.66L11 12.9l-3.66 3.66zm15.67-6.26A8.95 8.95 0 0 0 13 4V.76L8.76 5 13 9.24V6c1.79 0 3.58.68 4.95 2.05a7.007 7.007 0 0 1 0 9.9 6.97 6.97 0 0 1-7.79 1.44l-1.49 1.49C10 21.62 11.5 22 13 22c2.3 0 4.61-.88 6.36-2.64a8.98 8.98 0 0 0 0-12.72"/></svg>

<svg  viewBox="0 0 24 24" fill="currentColor"><path  d="M7.34,6.41L0.86,12.9L7.35,19.38L13.84,12.9L7.34,6.41M3.69,12.9L7.35,9.24L11,12.9L7.34,16.56L3.69,12.9M19.36,6.64C17.61,4.88 15.3,4 13,4V0.76L8.76,5L13,9.24V6C14.79,6 16.58,6.68 17.95,8.05C20.68,10.78 20.68,15.22 17.95,17.95C16.58,19.32 14.79,20 13,20C12.03,20 11.06,19.79 10.16,19.39L8.67,20.88C10,21.62 11.5,22 13,22C15.3,22 17.61,21.12 19.36,19.36C22.88,15.85 22.88,10.15 19.36,6.64Z"/></svg>
